X: 11413
T: East Village Days
R: slip jig
M: 9/8
K: Gmajor
BcB G~E2E~G2|BcB GA2dB2|GcB G~E2E~G2|BcB G~A2AAG:|
FE2E2G FGE|BA2GAB dB2|G~E2~E2G FG2|ABd eB2 GGF|
DE2E2G FGE|BA2GAB dBg|fe2e2d Bde|A2 G~B2B ABd|

